src/img/ice skating.svg

<svg width="89" height="78" viewBox="0 0 89 78" fill="none" xmlns="http://www.w3.org/2000/svg">
<path d="M82.5033 45.4851C63.5946 42.8051 56.3991 35.3908 54.9175 34.8025C44.9469 27.1962 39.249 16.3006 36.2396 4.18227C36.0952 3.60878 35.8373 3.07004 35.4813 2.59785C35.1252 2.12567 34.6781 1.72962 34.1665 1.43309C33.6548 1.13657 33.0889 0.945571 32.5021 0.87139C31.9154 0.797208 31.3198 0.841341 30.7504 1.00119L9.23296 6.97769C8.29795 7.23965 7.47402 7.7997 6.88639 8.57273C6.29877 9.34577 5.97959 10.2895 5.97735 11.2605V62.3475C5.97825 63.1332 6.29074 63.8864 6.84627 64.4419C7.4018 64.9974 8.155 65.3099 8.94063 65.3108H11.9039V68.2741H4.49571C3.31684 68.2741 2.18626 68.7424 1.35267 69.576C0.519085 70.4096 0.0507813 71.5402 0.0507812 72.719C0.0507813 73.8979 0.519085 75.0285 1.35267 75.8621C2.18626 76.6957 3.31684 77.164 4.49571 77.164H81.5411C83.5052 77.1617 85.3881 76.3804 86.7769 74.9916C88.1658 73.6028 88.947 71.7198 88.9493 69.7558V52.8275C88.9512 51.0292 88.2978 49.2918 87.1113 47.9404C85.9249 46.589 84.2867 45.7161 82.5033 45.4851ZM31.5429 3.85601C31.7308 3.80247 31.9274 3.787 32.1213 3.81052C32.3152 3.83405 32.5024 3.89609 32.672 3.99301C32.8416 4.08992 32.9901 4.21975 33.1088 4.37487C33.2274 4.52998 33.3139 4.70726 33.3631 4.89627C34.8632 11.1628 37.2778 17.1744 40.5292 22.7375L37.526 25.7406C37.2561 26.0201 37.1067 26.3943 37.1101 26.7828C37.1135 27.1713 37.2693 27.5429 37.544 27.8176C37.8187 28.0923 38.1903 28.2481 38.5788 28.2515C38.9673 28.2549 39.3416 28.1055 39.621 27.8357L42.1325 25.3237C43.3562 27.121 44.6938 28.838 46.1371 30.4641L43.4524 33.1488C43.1815 33.4281 43.0313 33.8027 43.0343 34.1917C43.0373 34.5808 43.1932 34.953 43.4683 35.2281C43.7434 35.5032 44.1157 35.6591 44.5047 35.662C44.8937 35.665 45.2683 35.5148 45.5476 35.2439L48.1533 32.6381C49.4289 33.9221 50.7747 35.1343 52.1846 36.2692L49.3791 39.0754C49.1092 39.3548 48.9599 39.7291 48.9632 40.1176C48.9666 40.5061 49.1224 40.8777 49.3971 41.1524C49.6719 41.4271 50.0435 41.5829 50.4319 41.5863C50.8204 41.5897 51.1947 41.4403 51.4741 41.1704L54.5648 38.0791C62.7693 43.6976 72.2124 47.2457 82.0866 48.4201C83.1614 48.555 84.1502 49.0769 84.8679 49.8881C85.5856 50.6994 85.9831 51.7444 85.986 52.8275V62.3475H45.3392C45.0649 62.3478 44.7958 62.2717 44.5623 62.1277L26.0157 50.7143C25.7764 50.5838 25.5109 50.5087 25.2387 50.4944H8.94063V22.3432H10.4223C12.3863 22.3409 14.2693 21.5596 15.6581 20.1708C17.0469 18.782 17.8282 16.8991 17.8305 14.935V7.66472L31.5429 3.85601ZM65.243 65.3108H80.0595V68.2741H65.243V65.3108ZM20.7938 65.3108H23.7571C24.5427 65.3099 25.2959 64.9974 25.8514 64.4419C26.4069 63.8864 26.7194 63.1332 26.7203 62.3475V54.6282L43.0097 64.6522C43.7104 65.0829 44.5168 65.3109 45.3392 65.3108H56.3532V68.2741H20.7938V65.3108ZM10.0258 9.83251L14.8672 8.48778V14.935C14.8659 16.1135 14.3972 17.2433 13.5639 18.0766C12.7306 18.9099 11.6007 19.3786 10.4223 19.3799H8.94063V11.2605C8.94128 10.9368 9.04763 10.6221 9.2435 10.3644C9.43937 10.1066 9.71406 9.91986 10.0258 9.83251ZM8.94063 53.4577H23.7571L23.7585 62.3475H8.94063V53.4577ZM85.986 69.7558C85.9847 70.9342 85.516 72.0641 84.6827 72.8974C83.8494 73.7307 82.7196 74.1994 81.5411 74.2007H4.49571C4.10275 74.2007 3.72589 74.0446 3.44803 73.7667C3.17017 73.4889 3.01407 73.112 3.01407 72.719C3.01407 72.3261 3.17017 71.9492 3.44803 71.6714C3.72589 71.3935 4.10275 71.2374 4.49571 71.2374H11.9039C12.6896 71.2365 13.4428 70.924 13.9983 70.3685C14.5538 69.8129 14.8663 69.0597 14.8672 68.2741V65.3108H17.8305V68.2741C17.8314 69.0597 18.1439 69.8129 18.6994 70.3685C19.2549 70.924 20.0081 71.2365 20.7938 71.2374H56.3532C57.1388 71.2365 57.892 70.924 58.4476 70.3685C59.0031 69.8129 59.3156 69.0597 59.3165 68.2741V65.3108H62.2798V68.2741C62.2807 69.0597 62.5932 69.8129 63.1487 70.3685C63.7042 70.924 64.4574 71.2365 65.243 71.2374H80.0595C80.8451 71.2365 81.5983 70.924 82.1538 70.3685C82.7094 69.8129 83.0219 69.0597 83.0228 68.2741V65.3108H85.986V69.7558Z" fill="#3A4D6B"/>
</svg>

<svg width="89" height="78" fill="none" xmlns="http://www.w3.org/2000/svg"><path d="M82.503 45.485C63.595 42.805 56.4 35.391 54.917 34.803 44.947 27.196 39.25 16.3 36.24 4.183A4.428 4.428 0 0 0 30.75 1L9.233 6.978a4.458 4.458 0 0 0-3.256 4.283v51.087a2.967 2.967 0 0 0 2.964 2.963h2.963v2.963H4.496a4.445 4.445 0 1 0 0 8.89H81.54a7.417 7.417 0 0 0 7.408-7.408V52.828a7.395 7.395 0 0 0-6.446-7.343ZM31.543 3.856a1.466 1.466 0 0 1 1.82 1.04 65.644 65.644 0 0 0 7.166 17.841l-3.003 3.004a1.482 1.482 0 0 0 2.095 2.095l2.511-2.512a50.882 50.882 0 0 0 4.005 5.14l-2.685 2.685a1.482 1.482 0 0 0 2.096 2.095l2.605-2.606a48.935 48.935 0 0 0 4.032 3.631l-2.806 2.806a1.482 1.482 0 0 0 2.095 2.095l3.09-3.09a61.582 61.582 0 0 0 27.523 10.34 4.454 4.454 0 0 1 3.899 4.407v9.52H45.339c-.274 0-.543-.075-.777-.22L26.016 50.715a1.822 1.822 0 0 0-.777-.22H8.94v-28.15h1.481a7.417 7.417 0 0 0 7.409-7.409v-7.27l13.712-3.809Zm33.7 61.455H80.06v2.963H65.243v-2.963Zm-44.45 0h2.964a2.967 2.967 0 0 0 2.963-2.964v-7.719l16.29 10.024c.7.43 1.507.659 2.33.659h11.013v2.963h-35.56v-2.963ZM10.027 9.833l4.841-1.345v6.447a4.45 4.45 0 0 1-4.445 4.445H8.941v-8.12a1.486 1.486 0 0 1 1.085-1.427ZM8.94 53.458h14.816l.002 8.89H8.94v-8.89Zm77.045 16.298a4.45 4.45 0 0 1-4.445 4.445H4.496a1.482 1.482 0 1 1 0-2.964h7.408a2.967 2.967 0 0 0 2.963-2.963v-2.963h2.963v2.963a2.967 2.967 0 0 0 2.964 2.963h35.56a2.967 2.967 0 0 0 2.962-2.963v-2.963h2.964v2.963a2.967 2.967 0 0 0 2.963 2.963H80.06a2.967 2.967 0 0 0 2.963-2.963v-2.963h2.963v4.445Z" fill="#3A4D6B"/></svg>
